packages/tokens/icons/feedback/size24Px.svg

<svg viewBox="0 0 24 24" fill="none" xmlns="http://www.w3.org/2000/svg" width="1em" height="1em"><path d="M6 19.5C5.84647 19.5 5.70145 19.5705 5.60667 19.6913L4.43127 21.189C4.03804 21.5098 3.5489 21.5688 3.16914 21.4282C2.7998 21.2915 2.5 20.9555 2.5 20.3756L2.5 3.57698C2.5 3.00788 2.99592 2.5 3.66667 2.5L20.3333 2.5C21.0041 2.5 21.5 3.00788 21.5 3.57698L21.5 18.5032C21.5 19.0397 21.0398 19.5 20.3333 19.5L6 19.5Z" stroke="currentColor" stroke-linecap="round" stroke-linejoin="round"/><path d="M5.5 9.74074C5.5 9.60778 5.60778 9.5 5.74074 9.5H8.25926C8.39222 9.5 8.5 9.60778 8.5 9.74074L8.5 16.2593C8.5 16.3922 8.39222 16.5 8.25926 16.5H5.74074C5.60778 16.5 5.5 16.3922 5.5 16.2593L5.5 9.74074Z" stroke="currentColor"/><path d="M15.5 17C15.7761 17 16 16.7761 16 16.5C16 16.2239 15.7761 16 15.5 16V17ZM15.5 16H10.8497V17H15.5V16ZM10.4108 15.8964L8.72361 15.0528L8.27639 15.9472L9.96358 16.7908L10.4108 15.8964ZM10.8497 16C10.6974 16 10.5471 15.9645 10.4108 15.8964L9.96358 16.7908C10.2387 16.9284 10.5421 17 10.8497 17V16Z" fill="currentColor"/><path d="M13.5 8C13.2239 8 13 8.22386 13 8.5C13 8.77614 13.2239 9 13.5 9V8ZM13.5 9H17.5V8H13.5V9ZM17.5 10H15.5V11H17.5V10ZM18 9.5C18 9.77614 17.7761 10 17.5 10V11C18.3284 11 19 10.3284 19 9.5H18ZM17.5 9C17.7761 9 18 9.22386 18 9.5H19C19 8.67157 18.3284 8 17.5 8V9Z" fill="currentColor"/><path d="M14.5 10.5H17.5C18.0523 10.5 18.5 10.9477 18.5 11.5V11.5C18.5 12.0523 18.0523 12.5 17.5 12.5H14.5" stroke="currentColor" stroke-linecap="round"/><path d="M14.5 12.5H17.5C18.0523 12.5 18.5 12.9477 18.5 13.5V13.5C18.5 14.0523 18.0523 14.5 17.5 14.5H14.5" stroke="currentColor" stroke-linecap="round"/><path d="M14.5 14.5H16.5C17.0523 14.5 17.5 14.9477 17.5 15.5V15.5C17.5 16.0523 17.0523 16.5 16.5 16.5H14.5" stroke="currentColor" stroke-linecap="round"/><path d="M7.99999 10.5C9.76894 10.5 11.1467 8.9354 11.4415 6.49829C11.5078 5.95001 11.9477 5.5 12.5 5.5V5.5C13.0523 5.5 13.5 5.94771 13.5 6.49999L13.5 8.49991" stroke="currentColor"/></svg>

<svg xmlns="http://www.w3.org/2000/svg" fill="none" viewBox="0 0 24 24" width="1em" height="1em"><path stroke="currentColor" stroke-linecap="round" stroke-linejoin="round" d="M6 19.5a.5.5 0 0 0-.393.191L4.43 21.19c-.393.32-.882.38-1.262.24-.37-.137-.669-.473-.669-1.053v-16.8c0-.57.496-1.077 1.167-1.077h16.666c.671 0 1.167.508 1.167 1.077v14.926c0 .537-.46.997-1.167.997H6Z"/><path stroke="currentColor" d="M5.5 9.74a.24.24 0 0 1 .24-.24h2.52a.24.24 0 0 1 .24.24v6.52a.24.24 0 0 1-.24.24H5.74a.24.24 0 0 1-.24-.24V9.74Z"/><path fill="currentColor" d="M15.5 17a.5.5 0 0 0 0-1v1Zm0-1h-4.65v1h4.65v-1Zm-5.09-.104-1.686-.843-.448.894 1.688.844.447-.895Zm.44.104a.982.982 0 0 1-.44-.104l-.446.895c.275.137.578.209.886.209v-1Zm2.65-8a.5.5 0 0 0 0 1V8Zm0 1h4V8h-4v1Zm4 1h-2v1h2v-1Zm.5-.5a.5.5 0 0 1-.5.5v1A1.5 1.5 0 0 0 19 9.5h-1Zm-.5-.5a.5.5 0 0 1 .5.5h1A1.5 1.5 0 0 0 17.5 8v1Z"/><path stroke="currentColor" stroke-linecap="round" d="M14.5 10.5h3a1 1 0 0 1 1 1v0a1 1 0 0 1-1 1h-3m0 0h3a1 1 0 0 1 1 1v0a1 1 0 0 1-1 1h-3m0 0h2a1 1 0 0 1 1 1v0a1 1 0 0 1-1 1h-2"/><path stroke="currentColor" d="M8 10.5c1.769 0 3.147-1.565 3.441-4.002.067-.548.507-.998 1.059-.998a1 1 0 0 1 1 1v2"/></svg>
